X:1
T:Let the Children Come
T:Let the Children Come
T:Merritt Jerome Munger, 1886
T:I. L. Andrews, 1872
T:Public Domain Courtesy of the Cyber Hymnal™
C:Merritt Jerome Munger, 1886
Z:Public Domain
Z:Courtesy of the Cyber Hymnal™
%%score ( 1 2 ) ( 3 4 )
L:1/8
Q:1/4=95
M:4/4
K:F
V:1 treble 
V:2 treble 
V:3 bass 
V:4 bass 
V:1
 [CA][CA][CA][CA] [CA]2 [B,G][A,F] | ([B,G][DF])[CE][B,D] [A,C]2 z2 | [EG]>[EG] [EG][EG] [EG]2 z2 | %3
w: 1.~Suf- fer lit- tle child- ren to|come * un- to Me,|Let the child- ren come,|
w: 2.~He the lambs will ga- ther and|fold * in His arms,|Let the child- ren come,|
w: 3.~Who- so- ev- er will, now may|come * un- to Me,|Let the child- ren come,|
 [FA]>[FA] [GB][FA] [EG]2 z2 | [CA][CA][CA][CA] [CA]2 [B,G][A,F] | ([B,G][DF])[CE][B,D] [A,C]2 z2 | %6
w: let the child- ren come.|For of such the King- dom of|Heav- * en shall be,|
w: let the child- ren come.|Safe from ev- ery dan- ger and|from * all a- larms,|
w: let the child- ren come.|Mer- cy’s door is o- pen— sal-|va- * tion is free,|
 [FG]>[FG] [FG][FG] [FA]2 [EG]2 | F6 z2 ||"^Refrain" c4- [Cc]2 (3(AB)[_Ec] | [Dd]4 [DG]2 z2 | %10
w: Let the lit- tle child- ren|come.|||
w: Let the lit- tle child- ren|come.|Bless- * èd~words, * words|of Je-|
w: Let the lit- tle child- ren|come.|||
 B4- [EB]2 (3([EG][FA])[GB] | [^Gd]4 [Ac]2 z2 | c4- [Cc]2 (3(AB)[_Ec] | [Dd]4 [Ff]2 [Fe][Fd] | %14
w: ||||
w: sus, Bless- èd~words, * words|of Je-|sus, * Bless- * èd~words,|words of Je- sus,|
w: ||||
 [Fc]2 F2 [EB]2 [FA]2 | F6 z2 |] %16
w: ||
w: Let the lit- tle|child-|
w: ||
V:2
 x8 | x8 | x8 | x8 | x8 | x8 | x8 | F6 x2 || C2 C2 C2 x2 | x8 | E2 E2 x4 | x8 | C2 C2 C2 x2 | x8 | %14
 x2 F2 x4 | F6 x2 |] %16
V:3
 F,,C,F,C, F,,C,F,C, | (B,,F,)D,F, F,,2 F,2 | [C,C]>[C,C] [C,C][C,C] [C,C]2 z2 | %3
 [F,C]>[F,C] [E,C][F,C] [C,C]2 z2 | F,,C,F,C, F,,C,F,C, | (B,,F,)D,F, F,,2 F,2 | %6
 [B,,D]>[B,,D] [B,,D][B,,D] [C,C]2 [C,B,]2 | [F,A,]6 z2 || [F,A,]2 [F,A,]2 [F,A,]2 (3(F,G,)[F,A,] | %9
 [B,,B,]2 [B,,B,]2 B,,2 A,,2 | [G,,C]2 [C,C]2 [C,C]2 (3:2:2([C,C]2 [C,C]) | [F,=B,]4 [F,B,]2 z2 | %12
 [F,A,]2 [F,A,]2 [F,A,]2 (3(F,G,)[F,A,] | [B,,B,]4 [B,,D]2 [B,,C][B,,B,] | %14
 [C,A,]2 [C,A,]2 [C,B,C]2 [C,B,]2 | [F,,F,A,]6 z2 |] %16
V:4
 x8 | x8 | x8 | x8 | x8 | x8 | x8 | x8 || x6 F,2 | x8 | x8 | x8 | x6 F,2 | x8 | x8 | x8 |] %16

